!!!SOCIAL_FUNCTION:	isleta
!!!PDT:	1957
!!!OTL: No_55_Song_of_Fortynine_Dance_(b).krn
!!!LING_GROUP: Keresan
!!!LANG: Tone
!!!REG: Southwest
**kern
*staff1
=1-
*clefF4
*k[f#]
*M3/4
2E\
8E\
8r
=2!|:
*M2/4
4E\
8.E\L
16e\Jk
=3
2e\
=4
8e\L
8d\J
16B\LL
16G\J
8B\J
=5
2B\
=6
*M3/4
8B\L
8A\J
16G\LL
16E\J
8G\J
8G\L
8E\J
=7
*M2/4
4E\
8BB/L
8E/J
=8
*M3/4
2E\
8E\
8r
=9:|!
*M2/4
4G\
8G\L
8B\J
=10
2B\
=11
*M3/4
8B\L
8A\J
16G\LL
16E\J
8G\J
8G\L
8E\J
=12
4E\
8BB/L
8BB/J
8E\
8r
=13
*M2/4
8E\L
8E\J
8G\L
8E\J
=14
4E\
8BB/L
8BB/J
=15
*M3/4
2E\
8E\
8r
==
*-
